src/ios-box-outline.svg

<?xml version="1.0" encoding="utf-8"?>
<!-- Generated by IcoMoon.io -->
<!DOCTYPE svg PUBLIC "-//W3C//DTD SVG 1.1//EN" "http://www.w3.org/Graphics/SVG/1.1/DTD/svg11.dtd">
<svg version="1.1" xmlns="http://www.w3.org/2000/svg" xmlns:xlink="http://www.w3.org/1999/xlink" width="512" height="512" viewBox="0 0 512 512">
<path fill="#000000" d="M287.8 240c8.8 0 16.1 7.2 16.1 16s-7 16-15.9 16h-64c-8.8 0-16-7.2-16-16s7.2-16 16-16h63zM288 224h-64c-17.6 0-32 14.4-32 32s14.4 32 32 32h64c17.6 0 32-14.4 32-32s-14.4-32-32-32v0z"></path>
<path fill="#000000" d="M416 112h-320v80h16v208h288v-208h16v-80zM384 384h-256v-192h256v192zM400 176h-288v-48h288v48z"></path>
</svg>

<?xml version="1.0" encoding="utf-8"?>
<!-- Generator: Adobe Illustrator 16.2.1, SVG Export Plug-In . SVG Version: 6.00 Build 0)  -->
<!DOCTYPE svg PUBLIC "-//W3C//DTD SVG 1.1//EN" "http://www.w3.org/Graphics/SVG/1.1/DTD/svg11.dtd">
<svg version="1.1" id="Layer_1" xmlns="http://www.w3.org/2000/svg" xmlns:xlink="http://www.w3.org/1999/xlink" x="0px" y="0px"
	 width="512px" height="512px" viewBox="0 0 512 512" style="enable-background:new 0 0 512 512;" xml:space="preserve">
<g>
	<path d="M287.8,240c8.8,0,16.1,7.2,16.1,16s-7,16-15.9,16h-64c-8.8,0-16-7.2-16-16s7.2-16,16-16h63 M288,224h-64
		c-17.6,0-32,14.4-32,32s14.4,32,32,32h64c17.6,0,32-14.4,32-32S305.6,224,288,224L288,224z"/>
	<g>
		<path d="M416,112H96v80h16v208h288V192h16V112z M384,384H128V192h256V384z M400,176H112v-48h288V176z"/>
	</g>
</g>
</svg>
